X: 17724
T: Home Ruler, The
R: hornpipe
M: 4/4
K: Dmajor
D2FA DAFA|dfed ABdB|A3B AFED|EFED BAFE|
D2FA DAFA|dfed ABdB|A2AB AFED|1 EFED D2FA:|2 EFED D4||
Addc defg|a2ba afed|efed BA (3Bcd|efed BAFA|
d3c defg|a3b afed|efed BAdB|1 AFED D4:|2 AFED D2FA||

